src/assets/img/moon.svg

<svg width="800" height="800" viewBox="0 0 64 64" xmlns="http://www.w3.org/2000/svg" xml:space="preserve" style="fill-rule:evenodd;clip-rule:evenodd;stroke-miterlimit:1.5"><path style="fill:none" d="M0 0h1280v800H0z" transform="translate(-960 -320)"/><path d="M1003.25 372.026c.25 0 .46.165.52.402a.532.532 0 0 1-.25.608 23.94 23.94 0 0 1-11.52 2.938c-13.246 0-24-10.754-24-24s10.754-24 24-24c4.251 0 8.24 1.107 11.71 3.05.21.123.31.371.24.605a.525.525 0 0 1-.52.394c-.06.003-.12.003-.18.003-10.625 0-19.25 8.962-19.25 20s8.625 20 19.25 20Z" style="fill:none;stroke:#000;stroke-width:4.8px" transform="matrix(.8328 0 0 .8328 -789.123 -261.147)"/></svg>

<?xml version="1.0" encoding="UTF-8" standalone="no"?>
<!DOCTYPE svg PUBLIC "-//W3C//DTD SVG 1.1//EN" "http://www.w3.org/Graphics/SVG/1.1/DTD/svg11.dtd">
<!-- Uploaded to: SVG Repo, www.svgrepo.com, Generator: SVG Repo Mixer Tools -->
<svg fill="#000000" width="800px" height="800px" viewBox="0 0 64 64" version="1.1" xmlns="http://www.w3.org/2000/svg" xmlns:xlink="http://www.w3.org/1999/xlink" xml:space="preserve" xmlns:serif="http://www.serif.com/" style="fill-rule:evenodd;clip-rule:evenodd;stroke-miterlimit:1.5;">
    <g transform="matrix(1,0,0,1,-960,-320)">
        <rect id="Icons" x="0" y="0" width="1280" height="800" style="fill:none;"/>
        <g id="Icons1" serif:id="Icons">
            <g id="Strike">
            </g>
            <g id="H1">
            </g>
            <g id="H2">
            </g>
            <g id="H3">
            </g>
            <g id="list-ul">
            </g>
            <g id="hamburger-1">
            </g>
            <g id="hamburger-2">
            </g>
            <g id="list-ol">
            </g>
            <g id="list-task">
            </g>
            <g id="trash">
            </g>
            <g id="vertical-menu">
            </g>
            <g id="horizontal-menu">
            </g>
            <g id="sidebar-2">
            </g>
            <g id="Pen">
            </g>
            <g id="Pen1" serif:id="Pen">
            </g>
            <g id="clock">
            </g>
            <g id="external-link">
            </g>
            <g id="hr">
            </g>
            <g id="info">
            </g>
            <g id="warning">
            </g>
            <g id="plus-circle">
            </g>
            <g id="minus-circle">
            </g>
            <g id="vue">
            </g>
            <g id="cog">
            </g>
            <g id="logo">
            </g>
            <g id="radio-check">
            </g>
            <g id="eye-slash">
            </g>
            <g id="eye">
            </g>
            <g id="toggle-off">
            </g>
            <g id="shredder">
            </g>
            <g id="spinner--loading--dots-" serif:id="spinner [loading, dots]">
            </g>
            <g id="react">
            </g>
            <g id="check-selected">
            </g>
            <g id="turn-off">
            </g>
            <g id="code-block">
            </g>
            <g id="user">
            </g>
            <g id="coffee-bean">
            </g>
            <g transform="matrix(0.638317,0.368532,-0.368532,0.638317,785.021,-208.975)">
                <g id="coffee-beans">
                    <g id="coffee-bean1" serif:id="coffee-bean">
                    </g>
                </g>
            </g>
            <g id="coffee-bean-filled">
            </g>
            <g transform="matrix(0.638317,0.368532,-0.368532,0.638317,913.062,-208.975)">
                <g id="coffee-beans-filled">
                    <g id="coffee-bean2" serif:id="coffee-bean">
                    </g>
                </g>
            </g>
            <g id="clipboard">
            </g>
            <g transform="matrix(1,0,0,1,128.011,1.35415)">
                <g id="clipboard-paste">
                </g>
            </g>
            <g id="clipboard-copy">
            </g>
            <g transform="matrix(0.832793,0,0,0.832793,170.877,58.8527)">
                <path d="M1003.25,372.026C1003.5,372.026 1003.71,372.191 1003.77,372.428C1003.84,372.665 1003.73,372.915 1003.52,373.036C1000.1,374.907 996.172,375.974 992,375.974C978.754,375.974 968,365.22 968,351.974C968,338.728 978.754,327.974 992,327.974C996.251,327.974 1000.24,329.081 1003.71,331.024C1003.92,331.147 1004.02,331.395 1003.95,331.629C1003.89,331.863 1003.68,332.025 1003.43,332.023C1003.37,332.026 1003.31,332.026 1003.25,332.026C992.625,332.026 984,340.988 984,352.026C984,363.064 992.625,372.026 1003.25,372.026C1003.25,372.026 1003.25,372.026 1003.25,372.026Z" style="fill:none;stroke:black;stroke-width:4.8px;"/>
            </g>
            <g id="Layer1">
            </g>
        </g>
    </g>
</svg>
